!!!COM: Fux, Johann Joseph
!!!OMD: Gradus ad Parnassum Exercise
!!!YEC: CC0 1.0 Universal (Public Domain). Mark Gotham and FourScoreAndMore.org waive all rights to this document.
**kern	**kern
*part2	*part1
*staff2	*staff1
*I"2	*I"1
*I'Pno	*I'Pno
!!LO:LB:g=z
*clefG2	*clefG2
*k[]	*k[]
!!LO:TX:omd:t=
*M2/2	*M2/2
=392	=392
!	!LO:TX:a:t=Fig. 82; Species&colon; 5; Modal final&colon; d; Cantus firmus&colon; Lower
1d	2r
.	[2a/
=393	=393
1f	4a/]
.	4d/
.	4e/
.	4f/
=394	=394
1e	4g/
.	4f/
.	4e/
.	4g/
=395	=395
1d	4f/
.	4d/
.	[2dd\
=396	=396
1g	4dd\]
.	4cc\
.	4b-X\
.	4g/
!!LO:LB:g=z
=397	=397
1f	4a/
.	4b\
.	[2cc\
=398	=398
1a	2cc\]
.	[2ff\
=399	=399
1g	4ff\]
.	8ee\L
.	8dd\J
.	[2ee\
=400	=400
1f	4ee\]
.	4a/
.	[2dd\
=401	=401
1e	2dd\]
.	2cc#X\
=402	=402
1d	1dd
==	==
*-	*-
!!!software: music21 v.9.7.1
!!!software: music21 v.9.7.1
!!!software: MuseScore 3.4.2
!!!RDF**kern: > = above
!!!RDF**kern: < = below
